X: 562
T: Da yengtao
L: 1/8
M: 2/4
K: F
c2A c [I:setbarnb 1]| 
gf2d | 
c> A G/ A/ c | 
F4 | 
A d c f | 
d> c A G | 
F> A G D | 
C4 | 
dc2A | 
G A G/ A/ G/ F/ | 
D C A/ c/ A/ G/ | 
DC3 |]

@@@ Tune index: 9436
